src/assets/tokens/sanFEI_EUR.svg

<svg width="62" height="35" viewBox="0 0 62 35" fill="none" xmlns="http://www.w3.org/2000/svg">
<g clip-path="url(#clip0_628_16031)">
<circle cx="44.4239" cy="17.2484" r="17.1436" fill="url(#paint0_linear_628_16031)"/>
<path d="M53.7757 14.8873L44.4116 5.3252L35.0466 14.8873L39.7287 19.6679L44.4116 14.8873L49.0937 19.6679L53.7757 14.8873Z" fill="white"/>
<path d="M44.0342 28.3053C43.5687 28.3053 43.1682 28.2214 42.8326 28.0536C42.5025 27.8804 42.2481 27.6368 42.0695 27.3229C41.8963 27.0036 41.8097 26.6274 41.8097 26.1944V22.5085H42.8813V26.2269C42.8813 26.5733 42.9788 26.8466 43.1736 27.0469C43.3739 27.2471 43.6607 27.3473 44.0342 27.3473C44.4076 27.3473 44.6918 27.2471 44.8867 27.0469C45.0869 26.8466 45.187 26.5733 45.187 26.2269V22.5085H46.2587V26.1944C46.2587 26.6274 46.1694 27.0036 45.9908 27.3229C45.8176 27.6368 45.5632 27.8804 45.2276 28.0536C44.8975 28.2214 44.4997 28.3053 44.0342 28.3053Z" fill="#1F2333"/>
<path d="M48.7088 28.1916V22.5085H51.1769C51.5341 22.5085 51.8453 22.5708 52.1106 22.6953C52.3758 22.8198 52.5814 22.9957 52.7276 23.223C52.8737 23.4503 52.9468 23.7182 52.9468 24.0267V24.1242C52.9468 24.4651 52.8656 24.7412 52.7032 24.9523C52.5408 25.1633 52.3406 25.3176 52.1024 25.415V25.5612C52.3189 25.572 52.4867 25.6478 52.6058 25.7885C52.7249 25.9238 52.7844 26.1051 52.7844 26.3324V28.1916H51.7127V26.4867C51.7127 26.3568 51.6776 26.2512 51.6072 26.1701C51.5422 26.0889 51.4313 26.0483 51.2743 26.0483H49.7805V28.1916H48.7088ZM49.7805 25.074H51.0632C51.3176 25.074 51.5152 25.0064 51.6559 24.8711C51.802 24.7303 51.8751 24.5463 51.8751 24.319V24.2378C51.8751 24.0105 51.8048 23.8292 51.664 23.6939C51.5233 23.5531 51.323 23.4828 51.0632 23.4828H49.7805V25.074Z" fill="#1F2333"/>
<path fill-rule="evenodd" clip-rule="evenodd" d="M35.801 28.3254V22.3748H39.7219V23.6166H37.1402V24.7048H39.4946V25.9466H37.1402V27.0836H39.7707V28.3254H35.801ZM42.7716 28.1727L42.7704 28.1721C42.4184 27.9874 42.1448 27.726 41.9531 27.3891L41.9525 27.3879L41.9518 27.3867C41.7661 27.0444 41.6758 26.6454 41.6758 26.1944V22.3748H43.0151V26.2269C43.0151 26.5468 43.1042 26.7834 43.2688 26.9529C43.4368 27.1205 43.6849 27.2135 44.0341 27.2135C44.3841 27.2135 44.6287 27.1201 44.7907 26.9536L44.792 26.9523C44.9618 26.7825 45.0532 26.5462 45.0532 26.2269V22.3748H46.3924V26.1944C46.3924 26.6459 46.2992 27.0452 46.1077 27.3878C45.921 27.7261 45.6467 27.9879 45.2889 28.1725L45.2882 28.1729C44.9351 28.3523 44.5154 28.4391 44.0341 28.4391C43.5528 28.4391 43.1308 28.3523 42.7727 28.1733L42.7716 28.1727ZM45.9908 27.3229C46.1694 27.0036 46.2587 26.6274 46.2587 26.1944V22.5085H45.187V26.2269C45.187 26.5733 45.0869 26.8466 44.8867 27.0469C44.6918 27.2471 44.4076 27.3473 44.0342 27.3473C43.6607 27.3473 43.3739 27.2471 43.1736 27.0469C42.9788 26.8466 42.8813 26.5733 42.8813 26.2269V22.5085H41.8097V26.1944C41.8097 26.6274 41.8963 27.0036 42.0695 27.3229C42.2481 27.6368 42.5025 27.8804 42.8326 28.0536C43.1682 28.2214 43.5687 28.3053 44.0342 28.3053C44.4997 28.3053 44.8975 28.2214 45.2276 28.0536C45.5632 27.8804 45.8176 27.6368 45.9908 27.3229ZM48.575 28.3254V22.3748H51.1769C51.5495 22.3748 51.8809 22.4397 52.1674 22.5742C52.4534 22.7084 52.6792 22.9004 52.8401 23.1506C53.002 23.4025 53.0805 23.6963 53.0805 24.0267V24.1242C53.0805 24.4863 52.9941 24.7935 52.8092 25.0338C52.6717 25.2125 52.5082 25.3548 52.3191 25.4594C52.4729 25.5004 52.6041 25.5798 52.707 25.7011C52.8522 25.8666 52.9181 26.0818 52.9181 26.3324V28.3254H51.5789V26.4867C51.5789 26.3819 51.5511 26.3097 51.506 26.2577L51.5043 26.2557L51.5027 26.2536C51.4739 26.2177 51.4118 26.1821 51.2743 26.1821H49.9142V28.3254H48.575ZM49.7805 26.0483H51.2743C51.4313 26.0483 51.5422 26.0889 51.6072 26.1701C51.6776 26.2512 51.7127 26.3568 51.7127 26.4867V28.1916H52.7844V26.3324C52.7844 26.1051 52.7249 25.9238 52.6058 25.7885C52.4867 25.6478 52.3189 25.572 52.1024 25.5612V25.415C52.3406 25.3176 52.5408 25.1633 52.7032 24.9523C52.8656 24.7412 52.9468 24.4651 52.9468 24.1242V24.0267C52.9468 23.7182 52.8737 23.4503 52.7276 23.223C52.5814 22.9957 52.3758 22.8198 52.1106 22.6953C51.8453 22.5708 51.5341 22.5085 51.1769 22.5085H48.7088V28.1916H49.7805V26.0483ZM51.5703 23.7894L51.5694 23.7885C51.4607 23.6798 51.2988 23.6166 51.0632 23.6166H49.9142V24.9403H51.0632C51.2938 24.9403 51.4542 24.8794 51.5631 24.7747C51.6797 24.6623 51.7413 24.5148 51.7413 24.319V24.2378C51.7413 24.0404 51.6814 23.8962 51.5713 23.7903L51.5703 23.7894ZM51.6559 24.8711C51.5152 25.0064 51.3176 25.074 51.0632 25.074H49.7805V23.4828H51.0632C51.323 23.4828 51.5233 23.5531 51.664 23.6939C51.8048 23.8292 51.8751 24.0105 51.8751 24.2378V24.319C51.8751 24.5463 51.802 24.7303 51.6559 24.8711Z" fill="#1F2333"/>
</g>
<g clip-path="url(#clip1_628_16031)">
<path d="M17.7768 34.6817C27.2817 34.6817 34.9868 26.9765 34.9868 17.4717C34.9868 7.9669 27.2817 0.261719 17.7768 0.261719C8.27201 0.261719 0.566833 7.9669 0.566833 17.4717C0.566833 26.9765 8.27201 34.6817 17.7768 34.6817Z" fill="#22996E"/>
<path d="M17.7755 25.1204H8.40566C7.0671 25.1204 6.30222 23.7819 7.0671 22.6345L12.4213 14.2208C12.8038 13.6471 13.3774 13.2646 14.1423 13.2646H21.4088C22.1737 13.2646 22.7473 13.6471 23.1298 14.2208L28.484 22.6345C29.2489 23.7819 28.484 25.1204 27.1454 25.1204H17.7755Z" fill="white"/>
<path d="M18.7319 5.99823L21.0265 9.44023C21.409 10.2051 21.0265 11.1612 20.0704 11.1612H15.4811C14.525 11.1612 14.1425 10.2051 14.525 9.44023L16.8196 5.99823C17.3933 5.23334 18.3494 5.23334 18.7319 5.99823Z" fill="white"/>
</g>
<defs>
<linearGradient id="paint0_linear_628_16031" x1="32.8398" y1="27.6377" x2="51.9893" y2="10.6061" gradientUnits="userSpaceOnUse">
<stop offset="0.0729167" stop-color="#AAC4FD"/>
<stop offset="1" stop-color="#76A0FC"/>
</linearGradient>
<clipPath id="clip0_628_16031">
<rect width="34.4096" height="34.4096" fill="white" transform="translate(27.2835 0.107422)"/>
</clipPath>
<clipPath id="clip1_628_16031">
<rect width="34.42" height="34.42" fill="white" transform="translate(0.566833 0.261719)"/>
</clipPath>
</defs>
</svg>

<svg fill="none" height="35" width="62" xmlns="http://www.w3.org/2000/svg" xmlns:xlink="http://www.w3.org/1999/xlink"><linearGradient id="a" gradientUnits="userSpaceOnUse" x1="32.84" x2="51.989" y1="27.638" y2="10.606"><stop offset=".073" stop-color="#aac4fd"/><stop offset="1" stop-color="#76a0fc"/></linearGradient><clipPath id="b"><path d="m0 0h34.41v34.41h-34.41z" transform="translate(27.284 .107)"/></clipPath><clipPath id="c"><path d="m0 0h34.42v34.42h-34.42z" transform="translate(.567 .262)"/></clipPath><g clip-path="url(#b)"><circle cx="44.424" cy="17.248" fill="url(#a)" r="17.144"/><path d="m53.776 14.887-9.364-9.562-9.365 9.562 4.682 4.78 4.683-4.78 4.682 4.78z" fill="#fff"/><g fill="#1f2333"><path d="m44.034 28.305c-.465 0-.866-.084-1.201-.251a1.841 1.841 0 0 1 -.764-.731c-.173-.32-.26-.696-.26-1.129v-3.684h1.072v3.718c0 .346.098.62.293.82.2.2.487.3.86.3.374 0 .658-.1.853-.3.2-.2.3-.474.3-.82v-3.718h1.072v3.685c0 .433-.09.81-.268 1.129a1.78 1.78 0 0 1 -.763.73c-.33.168-.728.252-1.194.252zm4.675-.113v-5.683h2.468c.357 0 .668.062.934.186.265.125.47.3.617.528.146.227.219.495.219.804v.097c0 .341-.081.617-.244.828a1.432 1.432 0 0 1 -.6.463v.146c.216.011.384.087.503.227.119.136.178.317.178.544v1.86h-1.071v-1.705a.466.466 0 0 0 -.106-.317c-.065-.081-.176-.122-.333-.122h-1.493v2.144zm1.072-3.118h1.282c.255 0 .452-.068.593-.203a.732.732 0 0 0 .22-.552v-.081c0-.227-.071-.409-.212-.544-.14-.14-.341-.211-.6-.211h-1.284v1.591z"/><path clip-rule="evenodd" d="m35.801 28.325v-5.95h3.92v1.242h-2.58v1.088h2.354v1.242h-2.355v1.137h2.63v1.241zm6.97-.152a1.975 1.975 0 0 1 -.818-.784v-.001l-.001-.001c-.186-.343-.276-.742-.276-1.193v-3.82h1.34v3.853c0 .32.088.556.253.726.168.168.416.26.765.26.35 0 .595-.093.757-.26h.001c.17-.17.261-.407.261-.726v-3.852h1.34v3.82c0 .45-.094.85-.285 1.193-.187.338-.461.6-.82.784-.353.18-.773.267-1.254.267s-.903-.087-1.261-.266h-.001zm3.22-.85c.178-.32.268-.696.268-1.129v-3.684h-1.072v3.718c0 .346-.1.62-.3.82-.195.2-.48.3-.853.3s-.66-.1-.86-.3c-.195-.2-.293-.474-.293-.82v-3.718h-1.071v3.685c0 .433.086.81.26 1.129.178.314.432.557.763.73.335.168.736.252 1.201.252.466 0 .864-.084 1.194-.251a1.78 1.78 0 0 0 .763-.731zm2.584 1.002v-5.95h2.602c.373 0 .704.065.99.2.286.133.512.325.673.576.162.252.24.545.24.876v.097c0 .362-.086.67-.27.91a1.58 1.58 0 0 1 -.49.425.75.75 0 0 1 .387.242c.145.166.211.38.211.631v1.993h-1.34v-1.838a.333.333 0 0 0 -.072-.23l-.002-.001-.001-.002c-.03-.036-.091-.072-.229-.072h-1.36v2.143zm1.206-2.277h1.493c.157 0 .268.04.333.122.07.081.106.187.106.317v1.705h1.071v-1.86c0-.227-.06-.408-.178-.544-.12-.14-.287-.216-.504-.227v-.146c.239-.097.439-.252.601-.463.163-.21.244-.487.244-.828v-.097c0-.309-.073-.577-.22-.804a1.442 1.442 0 0 0 -.616-.528 2.178 2.178 0 0 0 -.934-.186h-2.468v5.683h1.072zm1.79-2.259h-.002c-.108-.11-.27-.172-.506-.172h-1.149v1.323h1.15c.23 0 .39-.06.5-.165a.599.599 0 0 0 .177-.456v-.081c0-.198-.06-.342-.17-.448zm.085 1.082c-.14.135-.338.203-.593.203h-1.282v-1.591h1.282c.26 0 .46.07.601.21.14.136.211.317.211.545v.081a.732.732 0 0 1 -.22.552z" fill-rule="evenodd"/></g></g><g clip-path="url(#c)"><path d="m17.777 34.682c9.505 0 17.21-7.706 17.21-17.21 0-9.505-7.705-17.21-17.21-17.21s-17.21 7.705-17.21 17.21 7.705 17.21 17.21 17.21z" fill="#22996e"/><path d="m17.776 25.12h-9.37c-1.339 0-2.104-1.338-1.339-2.486l5.354-8.413c.383-.574.956-.956 1.721-.956h7.267c.765 0 1.338.382 1.72.956l5.355 8.413c.765 1.148 0 2.486-1.339 2.486h-9.37zm.956-19.122 2.294 3.442c.383.765 0 1.721-.956 1.721h-4.589c-.956 0-1.338-.956-.956-1.72l2.295-3.443c.573-.765 1.53-.765 1.912 0z" fill="#fff"/></g></svg>
